assets/assets/hearth.svg

<svg height="104" width="477" xmlns="http://www.w3.org/2000/svg"><path d="m89.73 101.6v1.31h-40v-1.31l8.29-5.96v-43.35c0-9.6-3.2-14.4-11.06-14.4-5.24 0-9.75 2.33-13.38 6.4v51.35l8.29 5.96v1.31h-40v-1.31l8.44-5.96v-87.14l-9.16-6.11v-1.31h32.44v38.69c5.24-6.69 12.95-12.22 24.87-12.22 14.84 0 22.84 8.44 22.84 23.57v44.51z"/><path d="m163.34 80.36c-4.95 13.67-15.42 24.29-34.91 24.29-22.55 0-38.26-15.13-38.26-37.82 0-25.6 16.29-39.28 38.69-39.28 20.51 0 34.33 11.06 34.33 32.88v4.22h-48.29c.73 19.64 9.46 29.67 21.97 29.67 12.36 0 18.91-6.84 23.57-15.27zm-48.44-19.05h25.6v-3.05c-.15-19.49-3.64-27.35-11.49-27.35-8-.01-13.82 8.72-14.11 30.4zm131.64 40.29v1.31h-26.91l-4.07-11.49c-5.53 8.44-13.24 13.24-22.69 13.24-11.35 0-23.57-4.8-23.57-20.8 0-12.07 10.33-18.33 21.97-21.24 8.44-2.04 17.02-4.22 23.71-6.26v-12.36c0-8.73-3.06-13.09-9.89-13.09-1.6 0-3.35.15-5.53.73l-21.67 24.73h-1.31l-1.02-25.46c11.93-2.18 22.69-3.35 33.31-3.35 20.51 0 29.38 9.16 29.38 21.24v46.55zm-31.57-13.82v-28.51l-10.33 3.64c-8.15 3.35-12.36 9.46-12.36 17.89 0 8.87 4.8 14.26 11.2 14.26 4.51-.01 7.86-2.33 11.49-7.28z" fill-rule="evenodd"/><path d="m310.54 29.3-.87 25.17h-1.31l-15.71-17.75c-4.51 2.04-7.71 5.53-10.33 10.47v48.44l12.36 5.96v1.31h-43.93v-1.31l8.29-5.96v-58.91l-9.02-6.11v-1.31h27.64l4.51 12.66c4.07-7.86 10.18-13.96 18.04-13.96 3.64-.01 6.55.29 10.33 1.3zm37.89 3.35v51.35c0 7.13 2.62 11.2 7.42 11.2 3.78 0 6.84-2.18 9.45-6.98l2.91 1.45c-4.36 9.46-10.91 14.98-22.84 14.98-13.82 0-20.22-7.71-20.22-18.47v-53.53h-10.18v-3.06l8.87-2.76 23.42-18.62h1.16v21.09h19.78v3.35z"/><path d="m456.3 101.6v1.31h-40v-1.31l8.29-5.96v-43.35c0-9.6-3.2-14.4-11.06-14.4-5.24 0-9.75 2.33-13.38 6.4v51.35l8.29 5.96v1.31h-40v-1.31l8.44-5.96v-87.14l-9.16-6.11v-1.31h32.44v38.69c5.24-6.69 12.95-12.22 24.87-12.22 14.84 0 22.84 8.44 22.84 23.57v44.51z"/><path d="m476.21 14.98c0 7.86-6.17 14.03-14.2 14.03-7.94 0-14.28-6.17-14.28-14.03 0-7.69 6.34-13.86 14.28-13.86 8.03 0 14.2 6.17 14.2 13.86zm-24.93 0c0 6.17 4.56 11.07 10.82 11.07 6.08 0 10.56-4.9 10.56-10.99 0-6.17-4.48-11.15-10.65-11.15s-10.73 4.98-10.73 11.07zm5.32 7.26v-13.86c1.27-.25 3.04-.42 5.32-.42 2.62 0 3.8.42 4.82 1.01.76.59 1.35 1.69 1.35 3.04 0 1.52-1.18 2.7-2.87 3.21v.17c1.35.51 2.11 1.52 2.54 3.38.42 2.11.68 2.96 1.01 3.46h-3.46c-.42-.51-.68-1.78-1.1-3.38-.25-1.52-1.1-2.2-2.87-2.2h-1.52v5.59zm4.82-7.85c1.77 0 3.21-.59 3.21-2.03 0-1.27-.93-2.11-2.96-2.11-.84 0-1.44.08-1.77.17v3.97z" fill-rule="evenodd"/></svg>

<svg xmlns="http://www.w3.org/2000/svg" viewBox="0 0 477 104" width="477" height="104">
	<style>
		tspan { white-space:pre }
		.shp0 { fill: #000000 } 
	</style>
	<g>
		<g>
			<g>
				<path class="shp0" d="M89.73 101.6L89.73 102.91L49.73 102.91L49.73 101.6L58.02 95.64L58.02 52.29C58.02 42.69 54.82 37.89 46.96 37.89C41.72 37.89 37.21 40.22 33.58 44.29L33.58 95.64L41.87 101.6L41.87 102.91L1.87 102.91L1.87 101.6L10.31 95.64L10.31 8.5L1.15 2.39L1.15 1.08L33.59 1.08L33.59 39.77C38.83 33.08 46.54 27.55 58.46 27.55C73.3 27.55 81.3 35.99 81.3 51.12L81.3 95.63L89.73 101.6Z"/>
				<path fill-rule="evenodd" class="shp0" d="M163.34 80.36C158.39 94.03 147.92 104.65 128.43 104.65C105.88 104.65 90.17 89.52 90.17 66.83C90.17 41.23 106.46 27.55 128.86 27.55C149.37 27.55 163.19 38.61 163.19 60.43L163.19 64.65L114.9 64.65C115.63 84.29 124.36 94.32 136.87 94.32C149.23 94.32 155.78 87.48 160.44 79.05L163.34 80.36ZM114.9 61.31L140.5 61.31L140.5 58.26C140.35 38.77 136.86 30.91 129.01 30.91C121.01 30.9 115.19 39.63 114.9 61.31Z"/>
				<path fill-rule="evenodd" class="shp0" d="M246.54 101.6L246.54 102.91L219.63 102.91L215.56 91.42C210.03 99.86 202.32 104.66 192.87 104.66C181.52 104.66 169.3 99.86 169.3 83.86C169.3 71.79 179.63 65.53 191.27 62.62C199.71 60.58 208.29 58.4 214.98 56.36L214.98 44C214.98 35.27 211.92 30.91 205.09 30.91C203.49 30.91 201.74 31.06 199.56 31.64L177.89 56.37L176.58 56.37L175.56 30.91C187.49 28.73 198.25 27.56 208.87 27.56C229.38 27.56 238.25 36.72 238.25 48.8L238.25 95.35L246.54 101.6ZM214.97 87.78L214.97 59.27L204.64 62.91C196.49 66.26 192.28 72.37 192.28 80.8C192.28 89.67 197.08 95.06 203.48 95.06C207.99 95.05 211.34 92.73 214.97 87.78Z"/>
				<path class="shp0" d="M310.54 29.3L309.67 54.47L308.36 54.47L292.65 36.72C288.14 38.76 284.94 42.25 282.32 47.19L282.32 95.63L294.68 101.59L294.68 102.9L250.75 102.9L250.75 101.59L259.04 95.63L259.04 36.72L250.02 30.61L250.02 29.3L277.66 29.3L282.17 41.96C286.24 34.1 292.35 28 300.21 28C303.85 27.99 306.76 28.29 310.54 29.3Z"/>
				<path class="shp0" d="M348.43 32.65L348.43 84C348.43 91.13 351.05 95.2 355.85 95.2C359.63 95.2 362.69 93.02 365.3 88.22L368.21 89.67C363.85 99.13 357.3 104.65 345.37 104.65C331.55 104.65 325.15 96.94 325.15 86.18L325.15 32.65L314.97 32.65L314.97 29.59L323.84 26.83L347.26 8.21L348.42 8.21L348.42 29.3L368.2 29.3L368.2 32.65L348.43 32.65L348.43 32.65Z"/>
				<path class="shp0" d="M456.3 101.6L456.3 102.91L416.3 102.91L416.3 101.6L424.59 95.64L424.59 52.29C424.59 42.69 421.39 37.89 413.53 37.89C408.29 37.89 403.78 40.22 400.15 44.29L400.15 95.64L408.44 101.6L408.44 102.91L368.44 102.91L368.44 101.6L376.88 95.64L376.88 8.5L367.72 2.39L367.72 1.08L400.16 1.08L400.16 39.77C405.4 33.08 413.11 27.55 425.03 27.55C439.87 27.55 447.87 35.99 447.87 51.12L447.87 95.63L456.3 101.6Z"/>
			</g>
			<g>
				<g>
					<g>
						<g>
							<g>
								<path fill-rule="evenodd" class="shp0" d="M476.21 14.98C476.21 22.84 470.04 29.01 462.01 29.01C454.07 29.01 447.73 22.84 447.73 14.98C447.73 7.29 454.07 1.12 462.01 1.12C470.04 1.12 476.21 7.29 476.21 14.98ZM451.28 14.98C451.28 21.15 455.84 26.05 462.1 26.05C468.18 26.05 472.66 21.15 472.66 15.06C472.66 8.89 468.18 3.91 462.01 3.91C455.84 3.91 451.28 8.89 451.28 14.98ZM456.6 22.24L456.6 8.38C457.87 8.13 459.64 7.96 461.92 7.96C464.54 7.96 465.72 8.38 466.74 8.97C467.5 9.56 468.09 10.66 468.09 12.01C468.09 13.53 466.91 14.71 465.22 15.22L465.22 15.39C466.57 15.9 467.33 16.91 467.76 18.77C468.18 20.88 468.44 21.73 468.77 22.23L465.31 22.23C464.89 21.72 464.63 20.45 464.21 18.85C463.96 17.33 463.11 16.65 461.34 16.65L459.82 16.65L459.82 22.24L456.6 22.24ZM461.42 14.39C463.19 14.39 464.63 13.8 464.63 12.36C464.63 11.09 463.7 10.25 461.67 10.25C460.83 10.25 460.23 10.33 459.9 10.42L459.9 14.39L461.42 14.39Z"/>
							</g>
						</g>
					</g>
				</g>
			</g>
		</g>
	</g>
</svg>
